X:1
Q:1/4=120
L:1/8
M:2/4
K:C clef=G2
V:1
%%MIDI program 48
Fz/2F31/64[D-F-]2|(3:2[DF]z/2F31/32[D-G][D-]/2(3:2[F-D]/4[F]3/8|Dz/2^D31/64[F-^A,-]3/2(3:2[F-^A,]/4[F-]/2|[F-^D-]3/2(3:2[F-^D]/4[F-]/2[F-D-]3/2(3:2[FD]/4z/2|
Dz/2F31/64[D-^A-]2|(3:2[D^A]z/2d31/32[G-c][G-]/2(3:2[^A-G]/4[^A]3/8|[E-A][E-]/2(3:2[^A-E]/4[^A]3/8[c-F]31/32[c-F]31/64[c-F]31/64|[c-F]31/32[c-F]31/32[c-F-]3/2(3:2[cF]/4z/2|
Fz/2F31/64[D-F-]2|(3:2[DF]z/2^A31/32Dz/2F31/64|Gz/2^A31/64[G-G-]3/2(3:2[G-G]/4[G-]/2|[G-F-]3/2(3:2[G-F]/4[G-]/2[G-^D-]3/2(3:2[G^D]/4z/2|
Fz/2G31/64A3/2-(3:2A/4z/2|[A-C][A-]/2(3:2[D-A]/4[D]3/8[^D-A-]3/2[^DA]/4(3:2z/2|[Fd]z/2[^Dc]31/64[^A-D-]3/2(3:2[^A-D]/4[^A-]/2|[^A-D][^A-]/2[^A-D]31/64[^A-D-]3/2(3:2[^AD]/4z/2|
Fz/2F31/64[D-F-]2|[D-F-]14/4(3:2[DF]/4z/2|^Az/2^A31/64[D-^A-]2|[D-^A-]14/4(3:2[D^A]/4z/2|
dz/2d31/64[F-d-]2|[Fd]3/2zz/2D31/32|F31/32^A31/32[F-d-]3/2(3:2[Fd]/4z/2|[F-d-]3/2(3:2[Fd]/4z/2[F-^d-]3/2(3:2[F^d]/4z/2|
[F-d-]3/2(3:2[Fd]/4z/2[A-c-F]31/32[A-c-F]31/64[A-c-F]31/64|[A-c-F]31/32[A-c-F]31/64[A-c-F]31/64[A-c-F-]3/2(3:2[AcF]/4z/2|Gz/2G31/64[^A,-G-]2|[^A,-G-]14/4(3:2[^A,G]/4z/2|
[^A,^A]z/2[^A,^A]31/64[^A-E]31/32[^A-^C]31/32|[^A-E]31/32[^A-^C]31/32[^A-E-]3/2(3:2[^AE]/4z/2|[FAc]z/2[GAc]31/64[F-A-c-]2|[FAc]3/2zz/2^A31/32|
c31/32d31/32[F-c-]3/2(3:2[Fc]/4z/2|^A3/2-(3:2^A/4z/2[F-A-]3/2(3:2[FA]/4z/2|G3/2-(3:2G/4z/2[F-C]31/32[F-C]31/64[F-C]31/64|[F-C]31/32[F-C]31/64C31/64C31/32F31/32|
D31/32^D31/32F31/32D31/32|F31/32^A31/32
L:1/8
M:2/4
K:C clef=F4
V:2
%%MIDI program 48
F,z/2F,31/64^A,3/2-(3:2^A,/4z/2|A,3/2-(3:2A,/4z/2[G,-^A,-]3/2(3:2[G,^A,]/4z/2|F,z/2^D,31/64D,3/2-(3:2D,/4z/2|C,3/2-(3:2C,/4z/2^A,,3/2-(3:2^A,,/4z/2|
^A,z/2A,31/64[G,-^A,-]3/2(3:2[G,^A,]/4z/2|[G,^A,]z/2F,31/64[E,-C-]3/2(3:2[E,C]/4z/2|[C,-C-]3/2(3:2[C,C]/4z/2[F,A,]31/32F,31/64F,31/64|F,31/32F,31/32F,3/2-(3:2F,/4z/2|
F,z/2F,31/64^A,3/2-(3:2^A,/4z/2|A,3/2-(3:2A,/4z/2[G,-^A,-]3/2(3:2[G,^A,]/4z/2|F,3/2-(3:2F,/4z/2[^D,-^A,-]3/2(3:2[^D,^A,]/4z/2|[D,-B,-]3/2(3:2[D,B,]/4z/2[C,C]31/32^A,31/32|
A,31/32[G,^A,]31/32[F,-C-]3/2(3:2[F,C]/4z/2|F,3/2-(3:2F,/4z/2F,3/2-(3:2F,/4z/2|[F,-A,-]3/2(3:2[F,A,]/4z/2[^A,,-^A,-]3/2(3:2[^A,,^A,]/4z/2|[^A,,^A,]z/2[^A,,^A,]31/64[^A,,-^A,-]3/2(3:2[^A,,^A,]/4z/2|
F,z/2F,31/64^A,31/32^A,,31/32|D,31/32F,31/32^A,2-|^A,3/2z/2F,31/32F,,31/32|^A,,31/32D,31/32F,2-|
F,3/2z/2^A,31/32^A,,31/32|D,31/32F,31/32^A,3/2-(3:2^A,/4z/2|z2zD,31/32|F,31/32^A,31/32C3/2-(3:2C/4z/2|
^A,3/2-(3:2^A,/4z/2[A,C]31/32F,31/64F,31/64|F,31/32F,31/64F,31/64F,3/2-(3:2F,/4z/2|z2^D,31/32^D,,31/32|G,,31/32^A,,31/32^D,3/2-(3:2^D,/4z/2|
z2^C,31/32E,,31/32|G,,31/32^A,,31/32^C,3/2-(3:2^C,/4z/2|C,z/2C,31/64C,31/32F,,31/32|A,,31/32C,31/32^D,3/2-(3:2^D,/4z/2|
z2z^A,31/32|C31/32D31/32C3/2-(3:2C/4z/2|^A,3/2-(3:2^A,/4z/2A,3/2-(3:2A,/4z/2|[G,-^A,-]3/2(3:2[G,^A,]/4z/2[F,A,]31/32F,31/32|
D,31/32^D,31/32F,31/32D,31/32|F,31/32^A,31/32
L:1/8
M:2/4
K:C clef=G2
V:3
%%MIDI program 56
Fz/2F31/64F2-|(3:2Fz/2F31/32Gz/2F31/64|Dz/2^D31/64F2-|F14/4-(3:2F/4z/2|
Dz/2F31/64^A2-|(3:2^Az/2d31/32cz/2^A31/64|Az/2^A31/64c2-|c14/4-(3:2c/4z/2|
Fz/2F31/64F2-|(3:2Fz/2^A31/32Dz/2F31/64|Gz/2^A31/64G2-|G14/4-(3:2G/4z/2|
Fz/2G31/64A3/2-(3:2A/4z/2|A3/2-(3:2A/4z/2A3/2-(3:2A/4z/2|dz/2c31/64^A2-|^A14/4-(3:2^A/4z/2|
Fz/2F31/64F2-|F14/4-(3:2F/4z/2|^Az/2^A31/64^A2-|^A14/4-(3:2^A/4z/2|
dz/2d31/64d2-|d3/2zz/2D31/32|F31/32^A31/32d3/2-(3:2d/4z/2|d3/2-(3:2d/4z/2^d3/2-(3:2^d/4z/2|
d3/2-(3:2d/4z/2[A-c-]2|[A-c-]14/4(3:2[Ac]/4z/2|Gz/2G31/64G2-|G14/4-(3:2G/4z/2|
^Az/2^A31/64^A2-|^A14/4-(3:2^A/4z/2|cz/2c31/64c2-|c3/2zz/2^A31/32|
c31/32d31/32c3/2-(3:2c/4z/2|^A3/2-(3:2^A/4z/2A3/2-(3:2A/4z/2|G3/2-(3:2G/4z/2F2-|F3/2zz/2F31/32|
D31/32^D31/32F31/32D31/32|F31/32^A31/32
L:1/8
M:2/4
K:C clef=G2
V:4
%%MIDI program 57
Fz/2F31/64D2-|(3:2Dz/2F31/32D3/2-(3:2D/4z/2|Dz/2^D31/64^A,3/2-(3:2^A,/4z/2|^D3/2-(3:2^D/4z/2D3/2-(3:2D/4z/2|
Dz/2F31/64D2-|(3:2Dz/2d31/32G3/2-(3:2G/4z/2|E3/2-(3:2E/4z/2F31/32F31/64F31/64|F31/32F31/32F3/2-(3:2F/4z/2|
Fz/2F31/64D2-|(3:2Dz/2^A31/32Dz/2F31/64|Gz/2^A31/64G3/2-(3:2G/4z/2|F3/2-(3:2F/4z/2^D3/2-(3:2^D/4z/2|
Fz/2G31/64A3/2-(3:2A/4z/2|Cz/2D31/64^D3/2-(3:2^D/4z/2|Fz/2^D31/64D3/2-(3:2D/4z/2|Dz/2D31/64D3/2-(3:2D/4z/2|
Fz/2F31/64D2-|D14/4-(3:2D/4z/2|^Az/2^A31/64D2-|D14/4-(3:2D/4z/2|
dz/2d31/64F2-|F3/2zz/2D31/32|F31/32^A31/32F3/2-(3:2F/4z/2|F3/2-(3:2F/4z/2F3/2-(3:2F/4z/2|
F3/2-(3:2F/4z/2F31/32F31/64F31/64|F31/32F31/64F31/64F3/2-(3:2F/4z/2|Gz/2G31/64^A,2-|^A,14/4-(3:2^A,/4z/2|
^A,z/2^A,31/64E31/32^C31/32|E31/32^C31/32E3/2-(3:2E/4z/2|[FA]z/2[GA]31/64[F-A-]2|[FA]3/2zz/2^A31/32|
c31/32d31/32F3/2-(3:2F/4z/2|^A3/2-(3:2^A/4z/2F3/2-(3:2F/4z/2|G3/2-(3:2G/4z/2C31/32C31/64C31/64|C31/32C31/64C31/64C31/32F31/32|
D31/32^D31/32F31/32D31/32|F31/32^A31/32
L:1/8
M:2/4
K:C clef=F4
V:5
%%MIDI program 58
F,z/2F,31/64^A,3/2-(3:2^A,/4z/2|A,3/2-(3:2A,/4z/2G,3/2-(3:2G,/4z/2|F,z/2^D,31/64D,3/2-(3:2D,/4z/2|C,3/2-(3:2C,/4z/2^A,,3/2-(3:2^A,,/4z/2|
^A,z/2A,31/64G,3/2-(3:2G,/4z/2|G,z/2F,31/64E,3/2-(3:2E,/4z/2|C,3/2-(3:2C,/4z/2F,31/32F,31/64F,31/64|F,31/32F,31/32F,3/2-(3:2F,/4z/2|
F,z/2F,31/64^A,3/2-(3:2^A,/4z/2|A,3/2-(3:2A,/4z/2G,3/2-(3:2G,/4z/2|F,3/2-(3:2F,/4z/2^D,3/2-(3:2^D,/4z/2|D,3/2-(3:2D,/4z/2C,31/32^A,31/32|
A,31/32G,31/32F,3/2-(3:2F,/4z/2|F,3/2-(3:2F,/4z/2F,3/2-(3:2F,/4z/2|F,3/2-(3:2F,/4z/2[^A,,-^A,-]3/2(3:2[^A,,^A,]/4z/2|[^A,,^A,]z/2[^A,,^A,]31/64[^A,,-^A,-]3/2(3:2[^A,,^A,]/4z/2|
F,z/2F,31/64^A,31/32^A,,31/32|D,31/32F,31/32^A,2-|^A,3/2z/2F,31/32F,,31/32|^A,,31/32D,31/32F,2-|
F,3/2z/2^A,31/32^A,,31/32|D,31/32F,31/32^A,3/2-(3:2^A,/4z/2|z2zD,31/32|F,31/32^A,31/32C3/2-(3:2C/4z/2|
^A,3/2-(3:2^A,/4z/2A,31/32F,31/64F,31/64|F,31/32F,31/64F,31/64F,3/2-(3:2F,/4z/2|z2^D,31/32^D,,31/32|G,,31/32^A,,31/32^D,3/2-(3:2^D,/4z/2|
z2^C,31/32E,,31/32|G,,31/32^A,,31/32^C,3/2-(3:2^C,/4z/2|C,z/2C,31/64C,31/32F,,31/32|A,,31/32C,31/32^D,3/2-(3:2^D,/4z/2|
z2z^A,31/32|C31/32D31/32C3/2-(3:2C/4z/2|^A,3/2-(3:2^A,/4z/2A,3/2-(3:2A,/4z/2|G,3/2-(3:2G,/4z/2F,31/32F,31/32|
D,31/32^D,31/32F,31/32D,31/32|F,31/32^A,31/32
L:1/8
M:2/4
K:C clef=G2
V:6
%%MIDI program 73
Fz/2F31/64F2-|(3:2Fz/2F31/32Gz/2F31/64|Dz/2^D31/64F2-|F14/4-(3:2F/4z/2|
Dz/2F31/64^A2-|(3:2^Az/2d31/32cz/2^A31/64|Az/2^A31/64c2-|c14/4-(3:2c/4z/2|
Fz/2F31/64F2-|(3:2Fz/2^A31/32Dz/2F31/64|Gz/2^A31/64G2-|G14/4-(3:2G/4z/2|
Fz/2G31/64A3/2-(3:2A/4z/2|A3/2-(3:2A/4z/2A3/2-(3:2A/4z/2|dz/2c31/64^A2-|^A14/4-(3:2^A/4z/2|
Fz/2F31/64F2-|F14/4-(3:2F/4z/2|^Az/2^A31/64^A2-|^A14/4-(3:2^A/4z/2|
dz/2d31/64d2-|d3/2zz/2D31/32|F31/32^A31/32d3/2-(3:2d/4z/2|d3/2-(3:2d/4z/2^d3/2-(3:2^d/4z/2|
d3/2-(3:2d/4z/2c2-|c14/4-(3:2c/4z/2|Gz/2G31/64G2-|G14/4-(3:2G/4z/2|
^Az/2^A31/64^A2-|^A14/4-(3:2^A/4z/2|cz/2c31/64c2-|c3/2zz/2^A31/32|
c31/32d31/32c3/2-(3:2c/4z/2|^A3/2-(3:2^A/4z/2A3/2-(3:2A/4z/2|G3/2-(3:2G/4z/2F2-|F3/2zz/2F31/32|
D31/32^D31/32F31/32D31/32|F31/32^A31/32
L:1/8
M:2/4
K:C clef=G2
V:7
%%MIDI program 72
fz/2f31/64f2-|(3:2fz/2f31/32gz/2f31/64|dz/2^d31/64f2-|f14/4-(3:2f/4z/2|
dz/2f31/64^a2-|(3:2^az/2d'31/32c'z/2^a31/64|az/2^a31/64c'15/64d'15/64c'15/64d'15/64c'15/64d'15/64c'15/64d'15/64|c'15/64d'15/64c'15/64d'15/64c'15/64d'15/64c'15/64d'15/64c'3/2-(3:2c'/4z/2|
fz/2f31/64f2-|(3:2fz/2^a31/32dz/2f31/64|gz/2^a31/64g2-|g14/4-(3:2g/4z/2|
fz/2g31/64a3/2-(3:2a/4z/2|a3/2-(3:2a/4z/2a3/2-(3:2a/4z/2|d'z/2c'31/64^a2-|^a14/4-(3:2^a/4z/2|
fz/2f31/64f2-|f14/4-(3:2f/4z/2|^az/2^a31/64^a2-|^a14/4-(3:2^a/4z/2|
d'z/2d'31/64d'2-|d'3/2zz/2d31/32|f31/32^a31/32d'3/2-(3:2d'/4z/2|d'3/2-(3:2d'/4z/2^d'3/2-(3:2^d'/4z/2|
d'3/2-(3:2d'/4z/2c'15/64d'15/64c'15/64d'15/64c'15/64d'15/64c'15/64d'15/64|c'15/64d'15/64c'15/64d'15/64c'15/64d'15/64c'15/64d'15/64c'3/2-(3:2c'/4z/2|gz/2g31/64g2-|g14/4-(3:2g/4z/2|
^az/2^a31/64^a2-|^a14/4-(3:2^a/4z/2|c'z/2c'31/64c'2-|c'3/2zz/2^a31/32|
c'31/32d'31/32c'3/2-(3:2c'/4z/2|^a3/2-(3:2^a/4z/2a3/2-(3:2a/4z/2|g3/2-(3:2g/4z/2f2-|f3/2zz/2f31/32|
d31/32^d31/32f31/32d31/32|f31/32^a31/32
L:1/8
M:2/4
K:C clef=G2
V:8
%%MIDI program 56
z4|z4|z4|z4|
z4|z4|z4|z4|
z4|z4|z4|z4|
z4|z4|z4|z4|
z4|[Ff]3/4[Ff]3/4[Ff]3/4[F-f-]3/2(3:2[Ff]/4z/2|z4|[^A^a]3/4[^A^a]3/4[^A^a]3/4[^A-^a-]3/2(3:2[^A^a]/4z/2|
z4|z4|z4|z4|
z4|z4|z4|z4|
z4|z4|z4|z4|
z4|z4|z4|z4|
z4|z2
L:1/8
M:2/4
K:C clef=G2
V:9
%%MIDI program 9
z2f2-|(3:2fz/2f31/32gz/2f31/64|dz/2^d31/64f2-|f14/4-(3:2f/4z/2|
dz/2f31/64^a2-|^a3/2z2z/2|z4|c'z/2c'31/64c'3/2-(3:2c'/4z/2|
fz/2f31/64f2-|f3/2z/2d3/2-(3:2d/4z/2|g3/2-(3:2g/4z/2g2-|g14/4-(3:2g/4z/2|
fz/2g31/64a3/2-(3:2a/4z/2|a3/2-(3:2a/4z/2a3/2-(3:2a/4z/2|d'z/2c'31/64^a2-|^a14/4-(3:2^a/4z/2|
f3/2-(3:2f/4z/2f2-|f14/4-(3:2f/4z/2|^az/2^a31/64^a2-|^a14/4-(3:2^a/4z/2|
d'z/2d'31/64d'2-|d'3/2zz/2d31/32|f3/2-(3:2f/4z/2d'3/2-(3:2d'/4z/2|d'3/2-(3:2d'/4z/2^d'2-|
^d'3/2z/2c'2-|c'14/4-(3:2c'/4z/2|g3/2-(3:2g/4z/2g2-|g14/4-(3:2g/4z/2|
^az/2^a31/64^a2-|^a14/4-(3:2^a/4z/2|c'z/2c'31/64c'2-|c'3/2zz/2^a31/32|
c'3/2-(3:2c'/4z/2c'3/2-(3:2c'/4z/2|^a3/2-(3:2^a/4z/2a3/2-(3:2a/4z/2|g3/2-(3:2g/4z/2f2-|f3/2zz/2f31/32|
d31/32^d31/32f31/32d31/32|f31/32^a31/32
Q:1/4=100
L:1/8
M:2/4
K:C clef=G2
V:1
%%MIDI program 48
[E-d-]3/2(3:2[Ed]/4z/2
L:1/8
M:2/4
K:C clef=F4
V:2
%%MIDI program 48
[C,-^A,-]3/2(3:2[C,^A,]/4z/2
L:1/8
M:2/4
K:C clef=G2
V:3
%%MIDI program 56
d3/2-(3:2d/4z/2
L:1/8
M:2/4
K:C clef=F4
V:4
%%MIDI program 57
E3/2-(3:2E/4z/2
L:1/8
M:2/4
K:C clef=F4
V:5
%%MIDI program 58
C,3/2-(3:2C,/4z/2
L:1/8
M:2/4
K:C clef=G2
V:6
%%MIDI program 73
d3/2-(3:2d/4z/2
L:1/8
M:2/4
K:C clef=G2
V:7
%%MIDI program 72
d'3/2-(3:2d'/4z/2
L:1/8
M:2/4
K:C clef=G2
V:8
%%MIDI program 9
d'3/2-(3:2d'/4z/2
Q:1/4=90
L:1/8
M:2/4
K:C clef=G2
V:1
%%MIDI program 48
[^D-c-]3/2(3:2[^Dc]/4z/2
L:1/8
M:2/4
K:C clef=F4
V:2
%%MIDI program 48
[F,-A,-]3/2(3:2[F,A,]/4z/2
L:1/8
M:2/4
K:C clef=G2
V:3
%%MIDI program 56
c3/2-(3:2c/4z/2
L:1/8
M:2/4
K:C clef=F4
V:4
%%MIDI program 57
^D3/2-(3:2^D/4z/2
L:1/8
M:2/4
K:C clef=F4
V:5
%%MIDI program 58
F,3/2-(3:2F,/4z/2
L:1/8
M:2/4
K:C clef=G2
V:6
%%MIDI program 73
c3/2-(3:2c/4z/2
L:1/8
M:2/4
K:C clef=G2
V:7
%%MIDI program 72
c'3/2-(3:2c'/4z/2
L:1/8
M:2/4
K:C clef=G2
V:8
%%MIDI program 9
c'3/2-(3:2c'/4z/2
Q:1/4=80
L:1/8
M:2/4
K:C clef=F4
V:1
%%MIDI program 48
[^A-D-]3/2(3:2[^A-D]/4[^A-]/2[^A-D][^A-]/2[^A-D]31/64|[^A-D-]3/2(3:2[^AD]/4
L:1/8
M:2/4
K:C clef=F4
V:2
%%MIDI program 48
^A,3/2-^A,/4(3:2z/2[F,^A,]z/2[D,^A,]31/64|[^A,,-^A,-]3/2(3:2[^A,,^A,]/4
L:1/8
M:2/4
K:C clef=G2
V:3
%%MIDI program 56
^A4-|^A3/2-(3:2^A/4
L:1/8
M:2/4
K:C clef=F4
V:4
%%MIDI program 57
D3/2-D/4(3:2z/2Dz/2D31/64|D3/2-(3:2D/4
L:1/8
M:2/4
K:C clef=F4
V:5
%%MIDI program 58
^A,3/2-^A,/4(3:2z/2F,z/2D,31/64|^A,,3/2-(3:2^A,,/4
L:1/8
M:2/4
K:C clef=G2
V:6
%%MIDI program 73
^A4-|^A3/2-(3:2^A/4
L:1/8
M:2/4
K:C clef=G2
V:7
%%MIDI program 72
^a4-|^a3/2-(3:2^a/4
L:1/8
M:2/4
K:C clef=G2
V:8
%%MIDI program 9
^a4-|^a3/2-(3:2^a/4


